img/svg/os/gentoo.svg

<?xml version="1.0" encoding="iso-8859-1"?>
<!-- Generator: Adobe Illustrator 21.0.2, SVG Export Plug-In . SVG Version: 6.00 Build 0)  -->
<svg version="1.1" id="&#x56FE;&#x5C42;_1" xmlns="http://www.w3.org/2000/svg" xmlns:xlink="http://www.w3.org/1999/xlink" x="0px"
	 y="0px" viewBox="0 0 16 16" style="enable-background:new 0 0 16 16;" xml:space="preserve">
<g>
	<path d="M14.853,6.663c-0.376-1.364-3.435-4.156-5.935-5.28C8.345,1.126,7.684,0.996,7.044,1c-0.25,0.002-0.497,0.024-0.735,0.067
		C3.774,1.531,1.99,3.724,1.839,5.169C1.765,5.878,2.147,6.408,2.358,6.642c0.57,0.633,1.706,1.117,2.436,1.517
		c-1.056,0.9-1.54,1.339-2.017,1.84c-0.713,0.749-1.215,1.574-1.217,2.164c-0.001,0.19-0.032,0.797,0.216,1.276
		c0.093,0.18,0.358,0.781,1.155,1.231c0.51,0.288,1.236,0.393,1.947,0.292c2.2-0.314,5.147-2.18,7.25-3.918
		c1.34-1.108,2.32-2.181,2.603-2.709C14.96,7.909,14.986,7.143,14.853,6.663z M5.164,13.824c-1.441,0.283-2.669,0.36-3.23-1.162
		c-0.486-1.319,0.456-2.284,1.843-3.552c0.576-0.526,1.036-0.92,1.727-1.503c0.04-0.04-3.329-1.201-3.437-2.534
		c-0.111-1.37,2.058-3.898,4.835-4.029C6.948,1.041,6.994,1.04,7.04,1.039c0.683-0.01,1.358,0.149,1.95,0.44
		c2.02,0.992,5.431,3.781,5.683,5.184C14.984,8.397,8.878,13.091,5.164,13.824z"/>
	<path d="M9.488,2.193C8.565,1.675,7.753,1.248,6.679,1.361C5.315,1.504,5.054,1.68,3.819,2.615C3.405,2.928,2.643,3.69,2.447,4.594
		c-0.074,0.344,0.014,0.642,0.262,0.85c0.794,0.668,2.123,1.209,3.214,1.733c0.319,0.153,0.108,0.431-0.407,0.877
		c-1.3,1.125-3.057,2.495-3.18,3.539c-0.058,0.492,0.111,1.16,0.708,1.502c0.697,0.4,2.145,0.139,3.112-0.221
		c1.413-0.526,3.268-1.687,4.741-2.828c1.532-1.187,2.956-2.694,3.027-2.94c0.086-0.302,0.078-0.581-0.089-0.901
		c-0.262-0.503-0.613-0.877-0.989-1.296C11.835,3.845,10.766,2.91,9.488,2.193z M8.673,6.195C8.128,6.391,6.398,5.714,6.451,4.791
		c0.077-1.364,1.028-1.625,2.231-1.043C9.667,4.224,10.679,5.475,8.673,6.195z"/>
</g>
</svg>

<svg xmlns="http://www.w3.org/2000/svg" viewBox="0 0 16 16"><title>gentoo</title><path d="M7,1a4.26,4.26,0,0,0-.73.07C3.77,1.53,2,3.72,1.84,5.17a1.94,1.94,0,0,0,.52,1.47A9.79,9.79,0,0,0,4.79,8.16a25.2,25.2,0,0,0-2,1.84,3.81,3.81,0,0,0-1.22,2.16,2.78,2.78,0,0,0,.22,1.28,2.7,2.7,0,0,0,1.16,1.23A3.19,3.19,0,0,0,4.88,15c2.2-.31,5.15-2.18,7.25-3.92a12.42,12.42,0,0,0,2.6-2.71,2.64,2.64,0,0,0,.12-1.67c-.38-1.36-3.43-4.16-5.94-5.28A4.56,4.56,0,0,0,7,1ZM7,1A4.31,4.31,0,0,1,9,1.48c2,1,5.43,3.78,5.68,5.18C15,8.4,8.88,13.09,5.16,13.82c-1.44.28-2.67.36-3.23-1.16-.49-1.32.46-2.28,1.84-3.55.58-.53,1-.92,1.73-1.5,0,0-3.33-1.2-3.44-2.53S4.13,1.17,6.9,1Z"/><path d="M6.68,1.36A4.33,4.33,0,0,0,3.82,2.61a3.8,3.8,0,0,0-1.37,2,.82.82,0,0,0,.26.85A16.64,16.64,0,0,0,5.92,7.18c.32.15.11.43-.41.88-1.3,1.13-3.06,2.49-3.18,3.54A1.52,1.52,0,0,0,3,13.1a4.51,4.51,0,0,0,3.11-.22A20.47,20.47,0,0,0,10.9,10a15.78,15.78,0,0,0,3-2.94,1.14,1.14,0,0,0-.09-.9,6.26,6.26,0,0,0-1-1.3A14.24,14.24,0,0,0,9.49,2.19a4.54,4.54,0,0,0-2.81-.83Zm2,2.39c1,.48,2,1.73,0,2.45-.55.2-2.28-.48-2.22-1.4C6.53,3.43,7.48,3.17,8.68,3.75Z"/></svg>
